X:453
T:79th's Farewell to Gibraltar
C:Pipe Major J MacDonald
S:Sessions etc
Z:Nigel Gatherer
M:2/4
L:1/8
K:A
c/d/ | e>f   ec       | A>B      Aa/g/ | fe/c/    e/f/a/e/ | cB    Bc/d/ |
       e>f   ec       | A>B      Aa/g/ | fe/c/    e/f/a/e/ | cA    A    :|
a    | fe/c/ e/f/a/e/ | f/a/e/c/ Ba    | fe/c/    e/f/a/e/ | fB    Ba    |
       fe/c/ e/f/a/e/ | f/a/e/c/ Ba    | fe/c/    e/f/a/e/ | cA    A    :| 
c/B/ | A>B   ca       | fe/c/    Bc/B/ | A/B/c/d/ e/f/e/c/ | fB    Bc/B/ |
       A>B   ca       | fe/c/    Bc/B/ | A/B/c/d/ e/f/e/c/ | cA    A    :| 
c/d/ | e>f   ec       | e>f      ea    | f>e      fa       | fe/c/ Ba    |
       fe/c/ e/f/a/e/ | f/a/e/c/ Ba    | fe/c/    e/f/a/e/ | cA    A   :|]
